X:200
T:The Blackbird
N:"Slow" "2nd Setting" "collected by J. O'Neill"
B:O'Neill's 200
Z:Transcribed by henrik.norbeck@mailbox.swipnet.se
M:2/4
L:1/8
K:D
A|B2 cBAG|A2 3ABc|dc dA|G2 AGFG|
A2 gfd|dcA BG|F2 DD|D2 z:|
A|de fg|a2 fa|gf ga|g2 agfe|
de fg|"~"ag fe|f2 dd|.de fg|
ag fa|g2 agfe|fd cA|f2 gfed|
cA BG|F"~"B AG|F2 DD|D2 z||
